X:1
T:In der Ferne
T:Wilhelm Baumgartner
T:Ludwig Uhland
T:In der Ferne
T:Will ruhen unter den Bäumen hier
T:CPDL - Creative Commons Attribution Non Commercial 3.0
C:Wilhelm
C:Baumgartner
Z:Ludwig Uhland
Z:CPDL - Creative Commons Attribution Non Commercial 3.0
%%score [ ( 1 2 ) ( 3 4 ) ]
L:1/8
Q:1/4=80
M:6/8
K:Eb
V:1 treble nm="Sopran\nAlt"
V:2 treble 
V:3 bass nm="Tenro\nBass"
V:4 bass 
V:1
"^Sanft und gebunden"!p! G | G2 F EFG | A2 G !breath!F2 F | A->AG!<(! (FG)!<)!A | %4
w: 1.~Will|ru- hen un- ter den|Bäu- men hier, die|Vög- * lein hör' ich so|
w: 2.~Will|ru- hen hier an des|Ba- ches Rand, wo|duf- ti- ge Blüm- * lein|
 !>!c3!>(! !breath!B2!>)!!mf! B | B2 B Bcd | e2 c !breath!=A2 c | d2 d deG | %8
w: ger- ne; wie|sin- get ihr so zum|Her- zen mir, von|uns'- rer Lie- be, was|
w: sprie- ßen; wer|hat euch Blüm- lein, hie-|her ge- sandt, seid|ihr ein herz- li- ches|
 B2 c/d/ !breath!B2!p! B/-B/ |{/d} BcB eBG | (B2 A) !breath!G2!mf! G/-G/ | %11
w: wis- set _ ihr in _|die- * ser wei- * ten|Fer- * ne, in _|
w: Lie- bes- * pfand aus der|Fer- ne von mei- * ner|Sü- * ßen, aus der|
!<(! G-G!<)![Q:1/4=72]"^poco ritardando"G !>!Gdc |!>(! B{/d}cB!>)! !fermata!e2 |] %13
w: die- * ser wei- * ten|Fer- * * ne?|
w: Fer- ne von mei- * ner|Sü- * * ßen?|
V:2
 E | E2 D EEE | F2 E D2 D | F->FE (DE)F | ^F3 G2 E | E2 G FFF | F2 F F2 E | D2 F FEG | %8
 F2 E D2 F/-F/ | F-FF E2 E | FEF E2 G/-G/ | (GF)E =B,2 C | DED E2 |] %13
V:3
!p! B, | B,2 A, G,A,B, | B,2 B, !breath!B,2 B, | B,->B,B,!<(! B,-B,!<)!B, | %4
 !>!=A,3!>(! !breath!B,2!>)!!mf! G, | G,2 B, B,=A,B, | C2 =A, !breath!C2 F, | F,2 A, A,G,C | %8
 D2 =A, !breath!B,2!p! D/-D/ | (DC)D E2 B, | B,3 !breath!B,2!mf! B,/-B,/ | %11
!<(! (B,=B,)!<)!C !>!F,2 E, |!>(! A,3!>)! !fermata!G,2 |] %13
V:4
 E, | E,2 E, E,E,E, | D,2 E, B,,2 B,, | D,->D,E, (A,G,)F, | E,3 E,2 E, | E,2 E, D,C,B,, | %6
 =A,,2 C, E,2 A,, | B,,2 B,, =B,,C,E, | F,2 F, B,,2 B,/-B,/ | =A,-A,A, G,2 E, | %10
 D,C,D, E,2 E,/-E,/ | (E,D,)C, G,,2 A,, | (B,,2 F,) E,2 |] %13

